SF_Symbols/cursorarrow.rays.svg

<?xml version="1.0" encoding="UTF-8"?>
<svg xmlns="http://www.w3.org/2000/svg" xmlns:xlink="http://www.w3.org/1999/xlink" width="24" height="24" viewBox="0 0 24 24" version="1.1">
<g id="surface1">
<path style=" stroke:none;fill-rule:nonzero;fill:rgb(100%,100%,100%);fill-opacity:1;" d="M 7.449219 16.980469 C 7.28125 16.804688 7.070312 16.71875 6.8125 16.71875 C 6.554688 16.71875 6.339844 16.804688 6.167969 16.980469 L 4.019531 19.113281 C 3.847656 19.289062 3.761719 19.503906 3.761719 19.761719 C 3.761719 20.011719 3.84375 20.222656 4.011719 20.394531 C 4.183594 20.570312 4.398438 20.65625 4.65625 20.65625 C 4.914062 20.664062 5.128906 20.578125 5.300781 20.40625 L 7.449219 18.261719 C 7.621094 18.085938 7.707031 17.875 7.707031 17.625 C 7.707031 17.367188 7.621094 17.152344 7.449219 16.980469 Z M 5.5625 12.4375 C 5.5625 12.195312 5.472656 11.984375 5.292969 11.800781 C 5.109375 11.621094 4.894531 11.53125 4.644531 11.53125 L 1.59375 11.53125 C 1.351562 11.53125 1.140625 11.621094 0.957031 11.800781 C 0.777344 11.984375 0.6875 12.195312 0.6875 12.4375 C 0.6875 12.6875 0.777344 12.902344 0.957031 13.082031 C 1.140625 13.257812 1.351562 13.34375 1.59375 13.34375 L 4.644531 13.34375 C 4.894531 13.34375 5.109375 13.257812 5.292969 13.082031 C 5.472656 12.902344 5.5625 12.6875 5.5625 12.4375 Z M 7.34375 7.800781 C 7.515625 7.628906 7.605469 7.417969 7.605469 7.167969 C 7.605469 6.910156 7.515625 6.695312 7.34375 6.519531 L 5.207031 4.375 C 5.035156 4.203125 4.824219 4.113281 4.574219 4.113281 C 4.324219 4.109375 4.109375 4.191406 3.925781 4.363281 C 3.753906 4.539062 3.667969 4.753906 3.667969 5.011719 C 3.667969 5.261719 3.753906 5.472656 3.925781 5.644531 L 6.0625 7.800781 C 6.234375 7.976562 6.449219 8.0625 6.699219 8.0625 C 6.953125 8.0625 7.171875 7.976562 7.34375 7.800781 Z M 11.988281 5.988281 C 12.238281 5.988281 12.453125 5.902344 12.636719 5.730469 C 12.816406 5.546875 12.90625 5.332031 12.90625 5.082031 L 12.90625 2.042969 C 12.90625 1.792969 12.816406 1.578125 12.636719 1.40625 C 12.453125 1.226562 12.238281 1.136719 11.988281 1.136719 C 11.746094 1.136719 11.535156 1.226562 11.355469 1.40625 C 11.171875 1.578125 11.082031 1.792969 11.082031 2.042969 L 11.082031 5.082031 C 11.082031 5.332031 11.171875 5.546875 11.355469 5.730469 C 11.535156 5.902344 11.746094 5.988281 11.988281 5.988281 Z M 16.519531 7.90625 C 16.695312 8.078125 16.910156 8.167969 17.167969 8.167969 C 17.421875 8.167969 17.640625 8.078125 17.8125 7.90625 L 19.957031 5.761719 C 20.132812 5.585938 20.21875 5.371094 20.21875 5.113281 C 20.21875 4.859375 20.132812 4.640625 19.957031 4.46875 C 19.785156 4.296875 19.574219 4.207031 19.324219 4.207031 C 19.074219 4.207031 18.859375 4.296875 18.6875 4.46875 L 16.519531 6.625 C 16.347656 6.796875 16.261719 7.015625 16.261719 7.269531 C 16.261719 7.519531 16.347656 7.734375 16.519531 7.90625 Z M 18.4375 12.4375 C 18.4375 12.6875 18.527344 12.902344 18.707031 13.082031 C 18.890625 13.257812 19.101562 13.34375 19.34375 13.34375 L 22.386719 13.34375 C 22.636719 13.34375 22.851562 13.257812 23.03125 13.082031 C 23.210938 12.902344 23.300781 12.6875 23.300781 12.4375 C 23.300781 12.195312 23.210938 11.984375 23.03125 11.800781 C 22.851562 11.621094 22.636719 11.53125 22.386719 11.53125 L 19.34375 11.53125 C 19.101562 11.53125 18.890625 11.621094 18.707031 11.800781 C 18.527344 11.984375 18.4375 12.195312 18.4375 12.4375 Z M 11.167969 19.675781 C 11.160156 19.878906 11.246094 20.007812 11.425781 20.0625 C 11.609375 20.117188 11.765625 20.082031 11.894531 19.957031 L 13.480469 18.363281 L 15.261719 22.761719 C 15.300781 22.859375 15.367188 22.925781 15.457031 22.96875 C 15.554688 23.011719 15.648438 23.015625 15.738281 22.980469 L 16.78125 22.5625 C 16.871094 22.519531 16.929688 22.453125 16.957031 22.355469 C 16.992188 22.257812 16.988281 22.160156 16.949219 22.0625 L 15.074219 17.730469 L 17.324219 17.636719 C 17.515625 17.628906 17.648438 17.546875 17.71875 17.394531 C 17.796875 17.242188 17.765625 17.09375 17.625 16.949219 L 11.925781 11.09375 C 11.796875 10.960938 11.648438 10.925781 11.488281 10.988281 C 11.335938 11.046875 11.261719 11.171875 11.261719 11.363281 Z M 11.167969 19.675781 "/>
</g>
</svg>

<svg xmlns="http://www.w3.org/2000/svg" width="24" height="24"><path style="stroke:none;fill-rule:nonzero;fill:#fff;fill-opacity:1" d="M7.45 16.98a.835.835 0 0 0-.638-.261.852.852 0 0 0-.644.261L4.02 19.113a.893.893 0 0 0-.258.649c0 .25.082.46.25.633.168.175.402.27.644.261a.842.842 0 0 0 .645-.25l2.148-2.144a.882.882 0 0 0 .258-.637.863.863 0 0 0-.258-.645Zm-1.888-4.543a.886.886 0 0 0-.269-.636.882.882 0 0 0-.648-.27H1.594a.893.893 0 0 0-.637.27.886.886 0 0 0-.27.636c0 .25.09.465.27.645a.902.902 0 0 0 .637.262h3.05c.25 0 .465-.086.649-.262a.873.873 0 0 0 .27-.645Zm1.782-4.636a.855.855 0 0 0 .261-.633.896.896 0 0 0-.261-.648L5.207 4.375a.855.855 0 0 0-.633-.262.886.886 0 0 0-.648.25.877.877 0 0 0-.258.649c0 .25.086.46.258.633L6.062 7.8a.87.87 0 0 0 .637.261.881.881 0 0 0 .645-.261Zm4.644-1.813c.25 0 .465-.086.649-.258a.888.888 0 0 0 .27-.648V2.043a.85.85 0 0 0-.27-.637.888.888 0 0 0-.649-.27.862.862 0 0 0-.633.27.84.84 0 0 0-.273.637v3.039c0 .25.09.465.273.648.18.172.391.258.633.258Zm4.532 1.918c.175.172.39.262.648.262.254 0 .473-.09.645-.262l2.144-2.144a.88.88 0 0 0 .262-.649.866.866 0 0 0-.262-.644.855.855 0 0 0-.633-.262c-.25 0-.465.09-.637.262L16.52 6.625a.884.884 0 0 0-.258.645c0 .25.086.464.258.636Zm1.918 4.532c0 .25.09.464.269.644a.902.902 0 0 0 .637.262h3.043c.25 0 .465-.086.644-.262a.873.873 0 0 0 .27-.645.886.886 0 0 0-.27-.636.873.873 0 0 0-.644-.27h-3.043a.893.893 0 0 0-.637.27.886.886 0 0 0-.27.636Zm-7.27 7.238c-.008.203.078.332.258.387.183.054.34.019.469-.106l1.585-1.594 1.782 4.399a.38.38 0 0 0 .476.218l1.043-.418a.32.32 0 0 0 .176-.207.4.4 0 0 0-.008-.293l-1.875-4.332 2.25-.093c.192-.008.324-.09.395-.242.078-.153.047-.301-.094-.446l-5.7-5.855c-.128-.133-.277-.168-.437-.106-.152.059-.226.184-.226.375Zm0 0"/></svg>
